X:5503
T:Reel On Mandolin
O:england
D:We Have Met Together, Mick Moloney, 1973
R:Reel
M:4/4
L:1/8
K:D
dB|AF (3FFF BFAF|DEFA B3 d|eB (3BBB egfe|dfed BcdB|
AF (3FFF BFAF|DEFA BABd|egfg (3eee dB|AFEF D2:|]
A2|dcde fefg|afbf afdf|eB (3BBB g2 eg|fgaf e/f/e dB|
AF (3FFF ABde|fb (3bbb afdf|g2 fg edBd|AFEF D2:|]


